!!!!SEGMENT: pl-kk--kk-i-8--033_anonim--homo-dei-creatura.krn
!!!cenid: 16xx:1174
!!!COM: Anonim
!!!COM-rismID: pe30004985
!!!CDT:
!!!CNT:
!!!OTL: Homo Dei creatura
!!!PDT:
!!!AGN: Sacred
!!!SMS-siglum: PL-Kk
!!!SMS-shelfmark: Kk.I.8
!!!SMS-shelfwork: 033 W
!!!SMS-variant:
!!!SMS-altvar:
!!!NIFC-rismSourceID: 1001148105
!!!NIFC-rismChildID: 1001149238
!!!NIFC-islandoraID: pl-kk:2296
!!!URL-pdf-islandora: https://repozytorium.nifc.pl/islandora/object/pl-kk%3A2296/datastream/PDF/view
!!!URL-scan: https://polish.musicsources.pl/pl/lokalizacje/galeria/rekopisy/6141 @EN{Scan on Polish Music Sources Website} @PL{Skany w portalu Dziedzictwo Muzyki Polskiej w otwartym dostępie}
!!!ONB-nifc: UWAGA: A (skan 0021), T1 (0044), T2 (0068), B (0091). Następny utwór: Salutis humanae sator Jesu
!!!AIN: 1 alto 1 bass 2 tenor
!!!key:
**kern	**text	**text	**text	**text	**text	**text	**kern	**text	**text	**text	**text	**text	**text	**kern	**text	**text	**text	**text	**text	**text	**kern	**text	**text	**text	**text	**text	**text
*part4	*part4	*part4	*part4	*part4	*part4	*part4	*part3	*part3	*part3	*part3	*part3	*part3	*part3	*part2	*part2	*part2	*part2	*part2	*part2	*part2	*part1	*part1	*part1	*part1	*part1	*part1	*part1
*staff4	*staff4	*staff4	*staff4	*staff4	*staff4	*staff4	*staff3	*staff3	*staff3	*staff3	*staff3	*staff3	*staff3	*staff2	*staff2	*staff2	*staff2	*staff2	*staff2	*staff2	*staff1	*staff1	*staff1	*staff1	*staff1	*staff1	*staff1
*Ibass	*	*	*	*	*	*	*Itenor	*	*	*	*	*	*	*Itenor	*	*	*	*	*	*	*Ialto	*	*	*	*	*	*
*I"BASSVS.	*	*	*	*	*	*	*I"TENOR 2dus.	*	*	*	*	*	*	*I"Tenore 1mo	*	*	*	*	*	*	*I"alto.	*	*	*	*	*	*
*I'B	*	*	*	*	*	*	*I'T II	*	*	*	*	*	*	*I'T I	*	*	*	*	*	*	*I'A	*	*	*	*	*	*
*clefF4	*	*	*	*	*	*	*clefC4	*	*	*	*	*	*	*clefC4	*	*	*	*	*	*	*clefC3	*	*	*	*	*	*
*ok[b-b-]	*	*	*	*	*	*	*	*	*	*	*	*	*	*	*	*	*	*	*	*	*	*	*	*	*	*	*
*k[b-]	*	*	*	*	*	*	*k[b-]	*	*	*	*	*	*	*k[b-]	*	*	*	*	*	*	*k[b-]	*	*	*	*	*	*
*G:	*	*	*	*	*	*	*G:	*	*	*	*	*	*	*G:	*	*	*	*	*	*	*G:	*	*	*	*	*	*
*M3/1	*	*	*	*	*	*	*M3/1	*	*	*	*	*	*	*M3/1	*	*	*	*	*	*	*M3/1	*	*	*	*	*	*
=1	=1	=1	=1	=1	=1	=1	=1	=1	=1	=1	=1	=1	=1	=1	=1	=1	=1	=1	=1	=1	=1	=1	=1	=1	=1	=1	=1
!!LO:TX:t=P:problem:oddech/cezura na różnej wysokości:global
!	!	!	!	!	!	!	!	!	!	!	!	!	!	!	!	!	!	!	!	!	!LO:TX:t=P:problem=tekst/poprawki innym atramentem zgodnie z prośbą E.Z. wprowadzone do pliku	!	!	!	!	!	!
!	!	!	!	!	!	!	!	!	!	!	!	!	!	!	!	!	!	!	!	!	!LO:TX:t=P:global:problem=znaki nad nutami dopisane inną ręką	!	!	!	!	!	!
!	!	!	!	!	!	!	!LO:TX:t=P:problem=♭ poprawiony na ♮	!	!	!	!	!	!	!	!	!	!	!	!	!	!	!	!	!	!	!	!
0G	Ho-	Et	Quan-	Si	Ec-	Non	0Bn	Ho-	Et	Quan-	Si	Ec-	Non	0d	. Ho-	. Et	. Quan-	. Si	. Ec-	. Non	0g	Ho-	Et	Qvan-	Si	Ec-	Non
1G	-mo	si	-do	Je-	-ce	vi-	1B	-mo	si	-do	Je-	-ce	vi-	1d	-mo	si	-do	Je-	-ce	vi-	1g	-mo	Si	-do	Je-	-ce	vi-
=2	=2	=2	=2	=2	=2	=2	=2	=2	=2	=2	=2	=2	=2	=2	=2	=2	=2	=2	=2	=2	=2	=2	=2	=2	=2	=2	=2
0C	De-	pae-	Ca-	-sum	mun-	-ua-	0c	De-	pae-	Ca-	-sum	mun-	-ua-	0e-X	De-	pae-	Ca-	-sum	mun-	-ua-	0g	De-	pae-	ca-	-ſu(m)	mun-	-va-
!LO:N:acc=#	!	!	!	!	!	!	!	!	!	!	!	!	!	!	!	!	!	!	!	!	!	!	!	!	!	!	!
1BBn	-i	-nas	-ro	non	-dus	-mus	1G	-i	-nas	-ro	non	-dus	-mus	1d	-i	-nas	-ro	non	-dus	-mus	1g	-i	-naſ	-ro	non	-d(us)	-m(us)
=3	=3	=3	=3	=3	=3	=3	=3	=3	=3	=3	=3	=3	=3	=3	=3	=3	=3	=3	=3	=3	=3	=3	=3	=3	=3	=3	=3
!	!	!	!	!	!	!	!	!	!	!	!	!	!	!LO:TX:a:t=P:problem=♭ above	!	!	!	!	!	!	!	!	!	!	!	!	!
0C	Cre-	in-	ſe-	di-	e-	vt	0c	Cre-	in-	se-	di-	e-	vt	0e-X	Cre-	in-	se-	di-	e-	vt	0g	Cre-	in-	ſe-	di-	ê-	ut
*	*	*	*	*	*	*	*	*	*	*	*	*	*	*2\right	*	*	*	*	*	*	*	*	*	*	*	*	*
1E-X	-a-	-fer-	-pe-	-le-	-ua-	iu-	2G/	-a-	-fer-	-pe-	-le-	-ua-	iu-	2B-\	-a-	-fer-	-pe-	-le-	-ua-	iu-	1g	-a-	-fer-	-pe-	-le-	-va-	ju-
.	.	.	.	.	.	.	2A/	.	.	.	.	.	.	2c\	.	.	.	.	.	.	.	.	.	.	.	.	.
=4	=4	=4	=4	=4	=4	=4	=4	=4	=4	=4	=4	=4	=4	=4	=4	=4	=4	=4	=4	=4	=4	=4	=4	=4	=4	=4	=4
0D	-tu-	-na-	-li-	-xi-	-ne-	-men-	1B-	-tu-	-na-	-li-	-xi-	-ne-	-men-	0d	-tu-	-na-	-li-	-xi-	-ne-	-men-	0f#X	-tu-	-na-	-li-	-xi-	-ne-	-men-
.	.	.	.	.	.	.	2A/	.	.	.	.	.	.	.	.	.	.	.	.	.	.	.	.	.	.	.	.
.	.	.	.	.	.	.	2G/	.	.	.	.	.	.	.	.	.	.	.	.	.	.	.	.	.	.	.	.
1D	-ra	-les	-tur	-sti	-ſcit	-ta	1A	-ra	-les	-tur	-sti	-scit	-ta	1d	-ra	-les	-tur	-ſti	-ſcit	-ta	1f#	-ra,	-les	-t(ur),	-ſti	-ſcit	-ta,
=5	=5	=5	=5	=5	=5	=5	=5	=5	=5	=5	=5	=5	=5	=5	=5	=5	=5	=5	=5	=5	=5	=5	=5	=5	=5	=5	=5
1r	.	.	.	.	.	.	1r	.	.	.	.	.	.	1r	.	.	.	.	.	.	1r	.	.	.	.	.	.
!	!	!	!	!	!	!	!	!	!	!	!	!	!	!	!	!	!	!	!	!	!LO:TX:t=P:problem=1d poprawione na 1fn	!	!	!	!	!	!
!	!	!	!	!	!	!	!	!	!	!	!	!	!	!	!	!	!	!	!	!	!LO:TX:a:t=P:problem=♮ above	!	!	!	!	!	!
1D	cur	a-	Heu	nec	de-	ne	1A	Cur	a-	Heu	nec	de-	ne	1d	Cur	a-	Heu	nec	de-	ne	1fn	cur	a-	heu	nec	de-	ne
!	!	!	!	!	!	!	!	!	!	!	!	!	!	!	!	!	!	!	!	!	!LO:TX:t=P:problem=1e poprawione na 1g	!	!	!	!	!	!
1G	in	-gno-	de	Ma-	-cor	poſt	1B-	in	-gno-	de	Ma-	-cor	poſt	(2d\	in	-gno-	de	Ma-	-cor	poſt	1g	in	-gno-	de	Ma-	-cor	poſt
.	.	.	.	.	.	.	.	.	.	.	.	.	.	2e\)	.	.	.	.	.	.	.	.	.	.	.	.	.
=6	=6	=6	=6	=6	=6	=6	=6	=6	=6	=6	=6	=6	=6	=6	=6	=6	=6	=6	=6	=6	=6	=6	=6	=6	=6	=6	=6
!	!	!	!	!	!	!	!	!	!	!	!	!	!	!	!	!	!	!	!	!	!LO:TX:t=P:problem=0f poprawione na 0a	!	!	!	!	!	!
0F	car-	-uiſ-	ſpi-	-ri-	e-	mor-	0c	Car-	-uiſ-	ſpi-	-ri-	e-	mor-	0f	car-	-uiſ-	ſpi-	-ri-	e-	mor-	0a	car-	-viſ-	Spi-	-ri-	-e-	mor-
!	!	!	!	!	!	!	!	!	!	!	!	!	!	!	!	!	!	!	!	!	!LO:TX:a:t=P:problem=♮ above	!	!	!	!	!	!
1D	-ne	-ses	-ri-	-ae	-ius	-tem	1d	-ne	-ses	-ri-	-ae	-ius	-tem	1f	-ne	-ses	-ri-	-ae	-ius	-tem	1fn	-ne	-ses	-ri-	-ae	-jus	-te(m)
=7	=7	=7	=7	=7	=7	=7	=7	=7	=7	=7	=7	=7	=7	=7	=7	=7	=7	=7	=7	=7	=7	=7	=7	=7	=7	=7	=7
*	*	*	*	*	*	*	*lig	*	*	*	*	*	*	*	*	*	*	*	*	*	*	*	*	*	*	*	*
0C	mo-	quae	-tu	ſer-	-iam	ad	(1G	mo-	quae	-tu	ſer-	-iam	ad	0e-X	mo-	quae	-tu	ſer-	-iam	ad	0g	mo-	qvae	-tu	Ser-	-jam	ad
.	.	.	.	.	.	.	1A)	.	.	.	.	.	.	.	.	.	.	.	.	.	.	.	.	.	.	.	.
*	*	*	*	*	*	*	*Xlig	*	*	*	*	*	*	*	*	*	*	*	*	*	*	*	*	*	*	*	*
*2\right	*	*	*	*	*	*	*	*	*	*	*	*	*	*	*	*	*	*	*	*	*	*	*	*	*	*	*
!	!	!	!	!	!	!	!	!	!	!	!	!	!	!	!	!	!	!	!	!	!	!	!	!LO:MO:mod=nil	!	!	!
!	!	!	!	!	!	!	!	!	!	!	!	!	!	!	!	!	!	!	!	!	!LO:TX:a:t=P:problem=♮ above	!	!	!	!	!	!
2D\	-ri-	et	nil	-ui-	mar-	tor-	1B-	-ri-	et	nil	-ui-	mar-	tor-	1d	-ri-	et	nil	-ui-	mar-	tor-	1fn	-ri-	êt	ne-	-vi-	mar-	tor-
2E-X\	.	.	.	.	.	.	.	.	.	.	.	.	.	.	.	.	.	.	.	.	.	.	.	.	.	.	.
=8	=8	=8	=8	=8	=8	=8	=8-	=8	=8	=8	=8	=8	=8	=8	=8	=8	=8	=8	=8	=8	=8	=8	=8	=8	=8	=8	=8
0F	-tu-	qua-	sci-	-ui-	-ce-	-men-	0A	-tu-	qua-	sci-	-ui-	-ce-	-men-	0c	-tu-	qua-	ſci-	-ui-	-ce-	-men-	0f	-tu-	qva-	-sci-	-vi-	-ce-	-men-
1F	-ra	-les	-tur	-sti	-ſcit	-ta	1A	-ra	-les	-t(ur)	-ſti	-ſcit	-ta	1c	-ra	-les	-tur	-ſti	-ſcit	-ta	1f	-ra	-leſ?	-tur,	-ſti	-scit,	-ta
=9	=9	=9	=9	=9	=9	=9	=9	=9	=9	=9	=9	=9	=9	=9	=9	=9	=9	=9	=9	=9	=9	=9	=9	=9	=9	=9	=9
1r	.	.	.	.	.	.	1rA	.	.	.	.	.	.	1r	.	.	.	.	.	.	1rg	.	.	.	.	.	.
1F	eſt	tu-	v-	nec	et	ve-	1A	eſt	tu-	v-	nec	et	ve-	1c	eſt	tu-	v-	nec	et	ve-	1f	eſt	tu-	u-	nec	et	Ve-
1F	tam	-os	-trum	Pa-	quo-	-ni-	1A	tam	-os	-trum	Pa-	quo-	-ni-	1c	tam	-os	-trum	Pa-	quo-	-ni-	1f	ta(m)	-os	-trùm	Pa-	quo-	-ni-
=10	=10	=10	=10	=10	=10	=10	=10	=10	=10	=10	=10	=10	=10	=10	=10	=10	=10	=10	=10	=10	=10	=10	=10	=10	=10	=10	=10
!	!	!	!	!	!	!	!	!	!	!	!	!	!	!	!	!	!	!	!	!	!LO:TX:t=P:problem=t. 10, 11 - nuty poprawione innym atramentem	!	!	!	!	!	!
!LO:TX:t=P::problem=zwr. 2&colon;poprawiona sylaba	!	!	!	!	!	!	!	!	!	!	!	!	!	!	!	!	!	!	!	!	!LO:TX:a:t=P:problem=♮ above	!	!	!	!	!	!
0G	ti-	Uti-	gau-	-tro-	-ti-	-a-	0G	ti-	vti-	gau-	-tro-	-ti-	-a-	0B-	ti-	vti-	gau-	-tro-	-ti-	-a-	0en	ti-	vti-	gau-	-tro-	-ti-	-a-
1A	-bi	.	-det	-num	-di-	-mus	1c	-bi	-q(ue)	-det	-nu(m)	-di-	-mus	1c	-bi	-q(ue)	-det	-nu(m)	-di-	-m(us)	1e	-bi	-q(ue)	-det,	-nu(m)	-di-	-m(us)
!LO:LB:g=original	!	!	!	!	!	!	!	!	!	!	!	!	!	!	!	!	!	!	!	!	!	!	!	!	!	!	!
=11	=11	=11	=11	=11	=11	=11	=11-	=11	=11	=11	=11	=11	=11	=11	=11	=11	=11	=11	=11	=11	=11	=11	=11	=11	=11	=11	=11
!	!	!	!	!	!	!	!LO:TX:a:t=P:problem=♭ above	!	!	!	!	!	!	!	!	!	!	!	!	!	!	!	!	!	!	!	!
0B-	par-	-q(ue)	an-	quae-	-e	et	0B-X	par-	car-	a(n)-	quae-	-e	et	0d	par-	Car-	a(n)-	quae-	-e	ad	(1d	par-	car-	an-	qvae-	-e	et
.	.	.	.	.	.	.	.	.	.	.	.	.	.	.	.	.	.	.	.	.	1e)	.	.	.	.	.	.
!LO:TX:t=P::problem=zwr. 3&colon;sylaba pe- poprawiona na pu-	!	!	!	!	!	!	!	!	!	!	!	!	!	!	!	!	!	!	!	!	!LO:TX:t=P::problem=zwr. 3&colon;sylaba pe- poprawiona na pu-	!	!	!	!	!	!
1A	-ua	Car-	-pu-	-si-	vi-	la-	1c	-ua	.	-pu-	-si-	vi-	la-	1A	-ua	.	-pu-	-ſi-	vi-	la-	1f	-va	.	-pu-	-ſi-	vi-	la-
!	!	!	!	!	!	!	!LO:LB:g=original	!	!	!	!	!	!	!LO:LB:g=original	!	!	!	!	!	!	!	!	!	!	!	!	!
=12	=12	=12	=12	=12	=12	=12	=12	=12	=12	=12	=12	=12	=12	=12	=12	=12	=12	=12	=12	=12	=12	=12	=12	=12	=12	=12	=12
!LO:TX:t=P::problem=zwr. 3&colon;sylaba ti- poprawiona na ni-	!	!	!	!	!	!	!	!	!	!	!	!	!	!	!	!	!	!	!	!	!LO:TX:t=P::problem=zwr. 3&colon;sylaba-ti- poprawiona na -ni-	!	!	!	!	!	!
0.G	Cu-	-na-	-ni-	-ui-	-le-	-men-	2G/	Cu-	-na-	-ni-	-ui-	-le-	-men-	2B-\	. Cu-	-. na-	-. ni-	-ui-	-le-	-men-	0f	Cu-	-na-	-ni-	-vi-	-le-	-men-
.	.	.	.	.	.	.	2A/	.	.	.	.	.	.	2c\	.	.	.	.	.	.	.	.	.	.	.	.	.
.	.	.	.	.	.	.	1B-	.	.	.	.	.	.	1d	.	.	.	.	.	.	.	.	.	.	.	.	.
.	.	.	.	.	.	.	2A/	.	.	.	.	.	.	2c\	.	.	.	.	.	.	1e	.	.	.	.	.	.
.	.	.	.	.	.	.	2G/	.	.	.	.	.	.	2B-\	.	.	.	.	.	.	.	.	.	.	.	.	.
!	!	!	!	!	!	!	!	!	!	!	!	!	!	!	!	!	!	!	!	!	!LO:LB:g=original	!	!	!	!	!	!
=13	=13	=13	=13	=13	=13	=13	=13	=13	=13	=13	=13	=13	=13	=13	=13	=13	=13	=13	=13	=13	=13	=13	=13	=13	=13	=13	=13
1F	-ra	-les	-tur	-sti	-scit	-ta	1A,<	-ra	-les	-tur	-sti	-scit	-ta	1c,<	-ra	-les	-tur	-sti	-scit	-ta	1f,<	-ra,	-les	-tur,	-sti,	-scit,	-ta
1D	pro	ap-	non	ti-	fal-	in-	1.B-	pro	ap-	non	ti-	fal-	in-	1d	pro	ap-	non	ti-	fal-	in-	1f	pro	ap-	non	ti-	fal-	in-
1D	ae-	-pe-	ſit	-bi	-lax	-tol-	.	.	.	.	.	.	.	1f	ae-	-pe-	ſit	-bi	-lax	-tol-	1f	ae-	-pe-	ſit	-bi	-lax	-tol-
.	.	.	.	.	.	.	2A/	ae-	-pe-	ſit	-bi	-lax	-tol-	.	.	.	.	.	.	.	.	.	.	.	.	.	.
=14	=14	=14	=14	=14	=14	=14	=14	=14	=14	=14	=14	=14	=14	=14	=14	=14	=14	=14	=14	=14	=14-	=14	=14	=14	=14	=14	=14
!	!	!	!	!	!	!	!	!	!	!	!	!	!	!	!	!	!	!	!	!	!LO:TX:t=P:problem=t.14 - nuty poprawione innym atramentem	!	!	!	!	!	!
1.E-X	-ter-	-ti-	ma-	in	e-	.	2G/	-ter-	-ti-	ma-	in	e-	-le-	0e-X	-ter-	-ti-	ma-	in	e-	.	0g	-ter-	-ti-	ma-	in	e-	-le-
.	.	.	.	.	.	.	2F/	.	.	.	.	.	.	.	.	.	.	.	.	.	.	.	.	.	.	.	.
.	.	.	.	.	.	.	2G/	.	.	.	.	.	.	.	.	.	.	.	.	.	.	.	.	.	.	.	.
2F\	.	.	.	.	.	.	2A/	.	.	.	.	.	.	.	.	.	.	.	.	.	.	.	.	.	.	.	.
*	*	*	*	*	*	*	*2\right	*	*	*	*	*	*	*	*	*	*	*	*	*	*	*	*	*	*	*	*
2G\	.	.	.	.	.	.	2B-\	.	.	.	.	.	.	2d\	.	.	.	.	.	.	2f\	.	-[[tus]]-	.	Sub-	.	.
!	!	!	!	!	!	!	!	!	!	!	!	!	!	!	!	!	!	!	!	!	!LO:SIC:v:s=2e-	!	!	!	!	!	!
2A\	.	.	.	.	.	.	2c\	.	.	.	.	.	.	2c\	.	.	.	.	.	.	2e\	.	.	.	.	.	.
=15	=15	=15	=15	=15	=15	=15	=15	=15	=15	=15	=15	=15	=15	=15	=15	=15	=15	=15	=15	=15	=15-	=15	=15	=15	=15	=15	=15
1B-	.	.	.	.	.	.	2d\	.	.	.	.	.	.	0.B-	.	.	.	.	.	-le-	2d\	.	.	.	.	.	.
.	.	.	.	.	.	.	2e-X\	.	.	.	.	.	.	.	.	.	.	.	.	.	2B-/	.	.	.	.	.	.
2BB-/	.	.	.	.	.	.	2d\	.	.	.	.	.	.	.	.	.	.	.	.	.	2d\	.	.	.	.	.	.
!	!	!	!	!	!	!	!	!	!	!	!	!	!	!	!	!	!	!	!	!	!LO:SIC:v:s=2e-	!	!	!	!	!	!
2C/	.	.	.	.	.	.	2c\	.	.	.	.	.	.	.	.	.	.	.	.	.	2e\	.	.	.	.	.	.
1D	.	.	.	.	.	-le-	1B-	.	.	.	.	.	.	.	.	.	.	.	.	.	1f	.	.	.	.	.	.
=16	=16	=16	=16	=16	=16	=16	=16	=16	=16	=16	=16	=16	=16	=16	=16	=16	=16	=16	=16	=16	=16	=16	=16	=16	=16	=16	=16
1E-X	-na	-tus	-gna	sub-	-ius	-ra-	1B-,<	-na	-tus	-gna	ſub-	-ius	-ra-	1c,<	-na	-tus	-gna	ſub-	-ius	-ra-	1g,<	-na	-tus	-gna	.	-jus	-ra-
1.F	glo-	fran-	men-	-si-	glo-	-bi-	1.B-	glo-	fran-	men-	-si-	glo-	-bi-	1.c	glo-	fran-	men-	-si-	glo-	-bi-	1.f	glo-	fran-	men-	-si-	glo-	-bi-
2F\	-ri-	-ge-	-ti-	-di-	-ri-	-li-	2A\	-ri-	-ge-	-ti-	-di-	-ri-	-li-	2c\	-ri-	-ge-	-ti-	-di-	-ri-	-li-	2f\	-ri-	-gê-	-ti-	-di-	-ri-	-li-
=17-	=17	=17	=17	=17	=17	=17	=17-	=17	=17	=17	=17	=17	=17	=17-	=17	=17	=17	=17	=17	=17	=17	=17	=17	=17	=17	=17	=17
0.BB-	-a	-res	-o	-um	-a	-a	0.B-	-a	-res	-o	-u(m)	-a	-a	0.d	-a	-res	-o.	-um	-a	-a	0.f	-a?	-rêſ.	-o.	-um:	-a.	-a.
=18	=18	=18	=18	=18	=18	=18	=18	=18	=18	=18	=18	=18	=18	=18	=18	=18	=18	=18	=18	=18	=18	=18	=18	=18	=18	=18	=18
!	!	!	!	!	!	!	!	!	!	!	!	!	!	!	!	!	!	!	!	!	!LO:SIC:v:s=0f	!	!	!	!	!	!
!LO:TX:t=P::problem=t. 18-19, zwr. 5&colon;poprawiony tekst	!	!	!	!	!	!	!	!	!	!	!	!	!	!	!	!	!	!	!	!	!LO:TX:a:t=P:problem=# above	!	!	!	!	!	!
0B-	il-	Et	Lu-	Quis	Quae	Mo-	0B-	il-	et	Lu-	Quis	Quae	Mo-	0d	il-	et	Lu-	Quis	Quae	Mo-	0f#X	il-	Et	Lu-	qvis	Quae	mo-
!LO:TX:a:t=P:problem=♮ above	!	!	!	!	!	!	!	!	!	!	!	!	!	!	!	!	!	!	!	!	!	!	!	!	!	!	!
1An	-la	in-	-ctus	o-	de-	-do	1c	-la	in-	-ctus	o-	de-	-do	1c	-la	in-	-ctus	o-	de-	-do	1f#X	-la	in-	-ctus	o-	de-	-do
=19-	=19	=19	=19	=19	=19	=19	=19-	=19	=19	=19	=19	=19	=19	=19	=19	=19	=19	=19	=19	=19	=19	=19	=19	=19	=19	=19	=19
0G	quan-	-nu-	qui-	-ra-	-mer-	ve-	0B-	quan-	-nu-	qui-	-ra-	-mer-	ve-	0d	quan-	-nu-	qui-	-ra-	-mer-	ve-	0g	qvan-	-nu-	qui-	-ra-	-mer-	ve-
1F	-ta	-me-	-dem	-bit	-git	-ni-	1d	-ta	-me-	-dem	-bit	-git	-ni-	1f	-ta	-me-	-dem	-bit	-git	-ni-	1a	-ta	-me-	-dem	-bit	-git	-ni-
=20	=20	=20	=20	=20	=20	=20	=20	=20	=20	=20	=20	=20	=20	=20	=20	=20	=20	=20	=20	=20	=20	=20	=20	=20	=20	=20	=20
!	!	!	!	!	!	!	!	!	!	!	!	!	!	!	!	!	!	!	!	!	!LO:TX:a:t=P:problem=♮ above	!	!	!	!	!	!
0En	ſit	-ra	ſi-	pro	ad	-a(m)	0G	ſit	-ra	ſi-	pro	ad	-am	0c#X	ſit	-ra	ſi-	pro	ad	-am	0en	Sit	-ra	si-	pro	ad	-a(m)
*	*	*	*	*	*	*	*custos:A	*	*	*	*	*	*	*	*	*	*	*	*	*	*	*	*	*	*	*	*
1D	si	pec-	-mu-	de-	in-	pre-	1A	ſi	pec-	-mu-	de-	in-	pre-	1d	si	pec-	-mu-	de-	in-	pre-	1f	Si	pec-	-mu-	de-	in-	pre-
!LO:LB:g=original	!	!	!	!	!	!	!LO:LB:g=original	!	!	!	!	!	!	!	!	!	!	!	!	!	!	!	!	!	!	!	!
=21	=21	=21	=21	=21	=21	=21	=21	=21	=21	=21	=21	=21	=21	=21	=21	=21	=21	=21	=21	=21	=21	=21	=21	=21	=21	=21	=21
*	*	*	*	*	*	*	*	*	*	*	*	*	*	*lig	*	*	*	*	*	*	*	*	*	*	*	*	*
0A	ſci-	-ca-	-la-	-li-	-fer-	-ce-	0A	ſci-	-ca-	-la-	-li-	-fer-	-ce-	1d	ſci-	-ca-	-la-	-li-	-fer-	-ce-	0e	Sci-	-ca-	-la-	-li-	-fer-	-cê-
!	!	!	!	!	!	!	!	!	!	!	!	!	!	!LO:TX:a:t=P:problem=# above	!	!	!	!	!	!	!	!	!	!	!	!	!
.	.	.	.	.	.	.	.	.	.	.	.	.	.	1c#X	.	.	.	.	.	.	.	.	.	.	.	.	.
*	*	*	*	*	*	*	*	*	*	*	*	*	*	*Xlig	*	*	*	*	*	*	*	*	*	*	*	*	*
1D	-res	-ta	-tur	-cto	-na	-mur	1A	-res	-ta	-tur	-cto	-na	-mur	1d	-res	-ta	-t[u]r	-cto	-na	-mur	1d	-res?	-ta	-tur,	-cto,	-na,	-mur,
!	!	!	!	!	!	!	!	!	!	!	!	!	!	!LO:LB:g=original	!	!	!	!	!	!	!	!	!	!	!	!	!
=22	=22	=22	=22	=22	=22	=22	=22	=22	=22	=22	=22	=22	=22	=22	=22	=22	=22	=22	=22	=22	=22	=22	=22	=22	=22	=22	=22
1r	.	.	.	.	.	.	1r	.	.	.	.	.	.	1r	.	.	.	.	.	.	1r	.	.	.	.	.	.
!LO:TX:t=P::problem=t. 22, zwr. 1&colon;poprawiony tekst	!	!	!	!	!	!	!	!	!	!	!	!	!	!	!	!	!	!	!	!	!	!	!	!	!	!	!
1D	prae-	di-	sed	quis	er-	Mor-	1A	prae-	di-	Sed	quis	er-	Mor-	1d	. Prae-	. di-	Sed	Quis	Er-	Mor-	1f	prae-	di-	sed	quis	er-	mor-
1D	-ter	-cta	ſub-	ſpon-	-go	-tem	1A	-ter	-cta	ſub-	ſpon-	-go	-tem	1d	-ter	-cta	ſub-	ſpon-	-go	-tem	1f	-ter	-cta	sub-	Spon-	-go	-te(m)
=23	=23	=23	=23	=23	=23	=23	=23	=23	=23	=23	=23	=23	=23	=23	=23	=23	=23	=23	=23	=23	=23	=23	=23	=23	=23	=23	=23
!	!	!	!	!	!	!	!LO:TX:a:t=P:problem=♭ above	!	!	!	!	!	!	!	!	!	!	!	!	!	!	!	!	!	!	!	!
*	*	*	*	*	*	*	*	*	*	*	*	*	*	*lig	*	*	*	*	*	*	*	*	*	*	*	*	*
!	!	!	!	!	!	!	!	!	!	!	!	!	!	!	!	!	!	!	!	!	!LO:TX:t=P::problem=zwr. 1&colon;sylaba i- poprawiona na e-	!	!	!	!	!	!
!	!	!	!	!	!	!	!	!	!	!	!	!	!	!LO:TX:a:t=P:problem=♭ above	!	!	!	!	!	!	!LO:TX:t=P:problem=nad 1d wykreślone 0e	!	!	!	!	!	!
0G	e-	fa-	-stan-	-de-	glo-	Chri-	0B-X	e-	fa-	-stan-	-de-	glo-	Chri-	1B-X	e-	fa-	-stan-	-de-	glo-	Chri-	1d	e-	fa-	-stan-	-de-	glo-	Chri-
.	.	.	.	.	.	.	.	.	.	.	.	.	.	1c	.	.	.	.	.	.	1e	.	.	.	.	.	.
*	*	*	*	*	*	*	*	*	*	*	*	*	*	*Xlig	*	*	*	*	*	*	*	*	*	*	*	*	*
1F	-am	-cta	-ti-	-bit	-ri-	-sti	1A	-am	-cta	-ti-	-bit	-ri-	-sti	1d	-am	-cta	-ti-	-bit	-ri-	-sti	1f	-am	-cta	-ti-	-bit	-ri-	-ſti
!	!	!	!	!	!	!	!	!	!	!	!	!	!	!	!	!	!	!	!	!	!LO:LB:g=original	!	!	!	!	!	!
=24-	=24	=24	=24	=24	=24	=24	=24	=24	=24	=24	=24	=24	=24	=24-	=24	=24	=24	=24	=24	=24	=24	=24	=24	=24	=24	=24	=24
*	*	*	*	*	*	*	*lig	*	*	*	*	*	*	*	*	*	*	*	*	*	*	*	*	*	*	*	*
0E-X	nil	co-	-a	pro	-a	me-	1G	nil	co-	-a	pro	-a	me-	0e-X	nil	co-	-a	pro	-a	me-	0g	nil	co-	-a	pro	-a	me-
.	.	.	.	.	.	.	1A	.	.	.	.	.	.	.	.	.	.	.	.	.	.	.	.	.	.	.	.
!	!	!	!	!	!	!	!LO:TX:a:t=P:problem=♭ above	!	!	!	!	!	!	!LO:TX:t=P::problem=zwr. 5&colon;sylaba ſae- poprawiona na ſu-	!	!	!	!	!	!	!	!	!	!	!	!	!
1G	ſi-	-gi-	va-	Con-	ſu-	-di-	1B-X	.	.	.	.	.	.	1d	si-	-gi-	va-	con-	ſu-	-di-	1g	ſi-	-gi-	Va-	con-	su-	-di-
*	*	*	*	*	*	*	*Xlig	*	*	*	*	*	*	*	*	*	*	*	*	*	*	*	*	*	*	*	*
=25-	=25	=25	=25	=25	=25	=25	=25-	=25	=25	=25	=25	=25	=25	=25	=25	=25	=25	=25	=25	=25	=25	=25	=25	=25	=25	=25	=25
!	!	!	!	!	!	!	!	!	!	!	!	!	!	!LO:TX:a:t=P:problem=♭ above	!	!	!	!	!	!	!	!	!	!	!	!	!
1E-X	-ti-	-ta-	-ſta-	-ui-	-per-	-te-	1B-	si-	-gi-	va-	con-	ſu-	-di-	2e-X\	-ti-	-ta-	-ſta-	-ui-	-per-	-te-	(1g	-ti-	-ta-	-sta-	-vi-	-per-	-te-
.	.	.	.	.	.	.	.	.	.	.	.	.	.	2d\	.	.	.	.	.	.	.	.	.	.	.	.	.
*	*	*	*	*	*	*	*lig	*	*	*	*	*	*	*	*	*	*	*	*	*	*	*	*	*	*	*	*
0F	.	.	.	.	.	.	1B-	-ti-	-ta-	-ſta-	-ui-	-per-	-te-	2c\	.	.	.	.	.	.	0f)	.	.	.	.	.	.
.	.	.	.	.	.	.	.	.	.	.	.	.	.	2B-\	.	.	.	.	.	.	.	.	.	.	.	.	.
.	.	.	.	.	.	.	1A	.	.	.	.	.	.	1c	.	.	.	.	.	.	.	.	.	.	.	.	.
*	*	*	*	*	*	*	*Xlig	*	*	*	*	*	*	*	*	*	*	*	*	*	*	*	*	*	*	*	*
=26	=26	=26	=26	=26	=26	=26	=26	=26	=26	=26	=26	=26	=26	=26	=26	=26	=26	=26	=26	=26	=26	=26	=26	=26	=26	=26	=26
1BB-,<	-res	-ta	-tur	-cto	-na	-mur	1B-,<	-res	-ta	-tur	-cto	-na	-mur,	1d,<	-res	-ta	-tur	-cto	-na	-mur	1f,<	-res?	-ta	-tur,	-cto	-na	-m(ur),
!LO:N:acc=#	!	!	!	!	!	!	!	!	!	!	!	!	!	!	!	!	!	!	!	!	!	!	!	!	!	!	!
1Bn	nec	men-	in	quis	vi-	ad	1G	nec	men-	in	quis	vi-	ad	1d	nec	men-	in	quis	vi-	ad	1g	nec	men-	in	qvis	vi-	ad
1B	mun-	-te	pro-	iu-	-ta	ſu-	1G	mun-	-te	pro-	iu-	-ta	ſu-	1d	mun-	-te	pro-	iu-	-ta	ſu-	1g	mun-	-te	pro-	ju-	-ta	ſu-
=27	=27	=27	=27	=27	=27	=27	=27	=27	=27	=27	=27	=27	=27	=27	=27	=27	=27	=27	=27	=27	=27	=27	=27	=27	=27	=27	=27
0c	-da-	to-	-pin-	-di-	no-	-per-	0c	-da-	to-	-pin-	-di-	no-	-per-	0e-X	-da-	to-	-pin-	-di-	no-	-per-	0g	-da-	to-	-pin-	-di-	no-	-per-
1B-X	-na	-ta	-quis	-ci-	-bis	-na	1G	-na	-ta	-quis	-ci-	-bis	-na	1d	-na	-ta	-quis	-ci-	-bis	-na	1g	-na	-ta	-quis	-ci-	-bis	-na
=28	=28	=28	=28	=28	=28	=28	=28	=28	=28	=28	=28	=28	=28	=28-	=28	=28	=28	=28	=28	=28	=28	=28	=28	=28	=28	=28	=28
!LO:TX:a:t=P:problem=♮ above	!	!	!	!	!	!	!	!	!	!	!	!	!	!	!	!	!	!	!	!	!	!	!	!	!	!	!
0An	ſic	con-	ge-	-o	ſem-	prae-	0A	ſic	con-	ge-	-o	ſem-	prae-	0c	ſic	con-	ge-	-o	ſem-	prae-	0f#X	ſic	con-	ge-	-o	sem-	prae-
1G	am-	-ſter-	-ne-	tam	-pi-	-pa-	1B-	am-	-ſter-	-ne-	tam	-pi-	-pa-	1d	am-	-ſter-	-ne-	tam	-pi-	-pa-	1g	am-	-ſter-	-ne-	ta(m)	-pi-	-pa-
=29	=29	=29	=29	=29	=29	=29	=29-	=29	=29	=29	=29	=29	=29	=29	=29	=29	=29	=29	=29	=29	=29	=29	=29	=29	=29	=29	=29
!	!	!	!	!	!	!	!	!	!	!	!	!	!	!	!	!	!	!	!	!	!LO:TX:b:t=P:problem=# below	!	!	!	!	!	!
0D	-bi-	-na-	-ra-	ſtri-	-ter-	-re-	0A	-bi-	-na-	-ra-	ſtri-	-ter-	-re-	0d	-bi-	-na-	-ra-	ſtri-	-ter-	-re-	0f#X	-bi-	-na-	-ra-	Stri-	-ter-	-rê-
1D	-res	-ta	-t(ur)	-cto	-na	-mur	1A	-res	-ta	-t(ur)	-cto	-na	-mur	1d	-res	-ta	-t(ur)	-cto	-na	-mur	1f#	-rêſ,	-ta	-tur	-cto,	-na	-mur
=30	=30	=30	=30	=30	=30	=30	=30	=30	=30	=30	=30	=30	=30	=30	=30	=30	=30	=30	=30	=30	=30	=30	=30	=30	=30	=30	=30
!	!	!	!	!	!	!	!	!	!	!	!	!	!	!	!	!	!	!	!	!	!LO:TX:a:t=P:problem=# above	!	!	!	!	!	!
1.D	va-	me-	Ze-	fi-	iu-	de-	1.A	va-	me-	ze-	fi-	iu-	de-	1.d	va-	me-	ze-	fi-	iu-	de-	1.f#X	Va-	me-	Ze-	fi-	ju-	de-
2E\	-na	-ri-	-lus	-èt	-gis	-ſi-	2A\	-na	-ri-	-lus	-[e]t	-gis	-ſi-	2c\	-na	-ri-	-lus	-et	-gis	-ſi-	2g\	-na	-ri-	-lus,	-et	-gis	-ſi-
1F#X	tra(n)-	-to	et	in	ſit	-de-	1d	tran-	-to	et	in	ſit	-de-	1A	tran-	-to	et	in	ſit	-de-	1a	tran-	-to	et	in	sit	-de-
=31	=31	=31	=31	=31	=31	=31	=31-	=31	=31	=31	=31	=31	=31	=31	=31	=31	=31	=31	=31	=31	=31	=31	=31	=31	=31	=31	=31
1G	-ſi-	de-	con-	prae-	me-	-ra-	1B-	-ſi-	de-	con-	prae-	me-	-ra-	1d	-ſi-	de-	con-	prae-	me-	-ra-	1g	-ſi-	de-	con-	prae-	me-	-ra-
1.D	-to-	-pla(n)-	-ten-	-ſi-	-mo-	-bi-	1.A	-to-	-pla(n)-	-te(n)-	-ſi-	-mo-	-bi-	1.d	-to-	-plan-	-ten-	-si-	-mo-	-bi-	1.g	-to-	-plan-	-ten-	-si-	-mo-	-bi-
!	!	!	!	!	!	!	!	!	!	!	!	!	!	!	!	!	!	!	!	!	!LO:TX:a:t=P:problem=# above	!	!	!	!	!	!
2D/	-ri-	-ge-	-ti-	-di-	-r[i]-	-li-	2A/	-ri-	-ge-	-ti-	-di-	-ri-	-li-	2d\	-ri-	-g[e]-	-ti-	-di-	-ri-	-li-	2f#X\	-ri-	-ge-	-ti-	-di-	-ri-	-li-
=32-	=32	=32	=32	=32	=32	=32	=32-	=32	=32	=32	=32	=32	=32	=32-	=32	=32	=32	=32	=32	=32	=32	=32	=32	=32	=32	=32	=32
!	!	!	!	!	!	!	!LO:N:acc=#	!	!	!	!	!	!	!	!	!	!	!	!	!	!	!	!	!	!	!	!
0.GG;<	-a	-res	-o	-um	-[a]	-[a]	0.Bn;;	-a	-res	-o	-um	-a	-a	0.d;;	-a	-[r]es	-o	-um	-a	-a	0.g;;	-a?	-rês.	-o.	-u(m)?	-ae.	-a.
!LO:PB:g=original	!	!	!	!	!	!	!LO:PB:g=original	!	!	!	!	!	!	!LO:PB:g=original	!	!	!	!	!	!	!LO:PB:g=original	!	!	!	!	!	!
=||	=||	=||	=||	=||	=||	=||	=||	=||	=||	=||	=||	=||	=||	=||	=||	=||	=||	=||	=||	=||	=||	=||	=||	=||	=||	=||	=||
*-	*-	*-	*-	*-	*-	*-	*-	*-	*-	*-	*-	*-	*-	*-	*-	*-	*-	*-	*-	*-	*-	*-	*-	*-	*-	*-	*-
!!!system-decoration: [(s1,s2,s3,s4)]
!!!RDF**kern: < = below
!!!RDF**kern: > = above
!!!ENC: Marta Chmielewska
!!!END: 2021-04-07
!!!ENC: Katarzyna Serwa
!!!END: 2021-03-28
!!!YEC: Copyright 2022 Narodowy Instytut Fryderyka Chopina (https://polishscores.org)
!!!YEM: License CC-BY-4.0 (https://creativecommons.org/licenses/by/4.0)
